Obsidian/actions/16s/edit-paste-symbolic.svg

<svg height="16" width="16" xmlns="http://www.w3.org/2000/svg"><path d="m5 0v.96875h-1.46875c-.8309999-.00000002-1.5.669-1.5 1.5v1c0-.831.6690001-1.5 1.5-1.5h1.46875v-.96875h1 3 1v.96875h1.5c.831 0 1.5.6690001 1.5 1.5v-1c0-.8309999-.669-1.5-1.5-1.5h-1.5v-.96875zm1 2v1h3v-1zm7 2.09375v1c.587017.2032563 1 .748375 1 1.40625v-1c0-.657875-.412983-1.2029937-1-1.40625zm-6 8.40625v1c0 .277.223.5.5.5h4c.277 0 .5-.223.5-.5v-1c0 .277-.223.5-.5.5h-4c-.277 0-.5-.223-.5-.5zm-2-12.5v.96875h-1.46875c-.8309999-.00000002-1.5.669-1.5 1.5v9.03125c.0000001.810431.6351935 1.468004 1.4375 1.5.020363.000812.041931 0 .0625 0h.46875 1v.5c0 .831.669 1.5 1.5 1.5h6c.831 0 1.5-.669 1.5-1.5v-8c0-.657875-.412983-1.2029937-1-1.40625v-1.625c0-.8309999-.669-1.5-1.5-1.5h-1.5v-.96875zm1 1h3v1h-3zm1.5 5h4c.277 0 .5.223.5.5v6c0 .277-.223.5-.5.5h-4c-.277 0-.5-.223-.5-.5v-6c0-.277.223-.5.5-.5z" fill="#bebebe"/></svg>

<?xml version="1.0" encoding="UTF-8" standalone="no"?>
<!-- Created with Inkscape (http://www.inkscape.org/) -->

<svg
   xmlns:dc="http://purl.org/dc/elements/1.1/"
   xmlns:cc="http://creativecommons.org/ns#"
   xmlns:rdf="http://www.w3.org/1999/02/22-rdf-syntax-ns#"
   xmlns:svg="http://www.w3.org/2000/svg"
   xmlns="http://www.w3.org/2000/svg"
   xmlns:xlink="http://www.w3.org/1999/xlink"
   xmlns:sodipodi="http://sodipodi.sourceforge.net/DTD/sodipodi-0.dtd"
   xmlns:inkscape="http://www.inkscape.org/namespaces/inkscape"
   width="16"
   height="16"
   id="svg2"
   sodipodi:version="0.32"
   inkscape:version="0.91 r13725"
   version="1.0"
   sodipodi:docname="edit-paste-symbolic.svg"
   inkscape:output_extension="org.inkscape.output.svg.inkscape"
   inkscape:export-filename="/home/matt/.icons/Sirocco/scalable/mimetypes/text-plain.png"
   inkscape:export-xdpi="90"
   inkscape:export-ydpi="90"
   sodipodi:modified="true"
   style="display:inline">
  <sodipodi:namedview
     id="base"
     pagecolor="#ffffff"
     bordercolor="#666666"
     borderopacity="1.0"
     inkscape:pageopacity="0.0"
     inkscape:pageshadow="2"
     inkscape:zoom="23.252798"
     inkscape:cx="-8.7769973"
     inkscape:cy="7.8251948"
     inkscape:document-units="px"
     inkscape:current-layer="layer1"
     width="128px"
     height="128px"
     inkscape:showpageshadow="false"
     inkscape:window-width="1920"
     inkscape:window-height="1004"
     inkscape:window-x="0"
     inkscape:window-y="25"
     showguides="true"
     inkscape:guide-bbox="true"
     showgrid="true"
     inkscape:window-maximized="1">
    <sodipodi:guide
       id="guide2226"
       position="32.637397,117.99844"
       orientation="horizontal" />
    <sodipodi:guide
       id="guide2230"
       position="110,57.402344"
       orientation="vertical" />
    <sodipodi:guide
       id="guide2232"
       position="33.760911"
       orientation="horizontal" />
    <sodipodi:guide
       id="guide2231"
       position="46.774696"
       orientation="horizontal" />
    <inkscape:grid
       enabled="true"
       visible="true"
       id="grid3231"
       type="xygrid" />
    <sodipodi:guide
       orientation="1,0"
       position="100,67.625"
       id="guide2713" />
  </sodipodi:namedview>
  <defs
     id="defs4">
    <inkscape:perspective
       sodipodi:type="inkscape:persp3d"
       inkscape:vp_x="0 : 11 : 1"
       inkscape:vp_y="0 : 1000 : 0"
       inkscape:vp_z="22 : 11 : 1"
       inkscape:persp3d-origin="11 : 7.3333333 : 1"
       id="perspective19" />
    <linearGradient
       id="StandardGradient"
       gradientTransform="scale(0.9219544,1.0846523)"
       x1="11.998966"
       y1="0.92195445"
       x2="11.998966"
       y2="19.387045"
       gradientUnits="userSpaceOnUse">
      <stop
         style="stop-color:#000000;stop-opacity:0.86274511;"
         offset="0"
         id="stop3283" />
      <stop
         style="stop-color:#000000;stop-opacity:0.47058824;"
         offset="1"
         id="stop2651" />
    </linearGradient>
    <linearGradient
       inkscape:collect="always"
       xlink:href="#StandardGradient"
       id="linearGradient2452"
       gradientUnits="userSpaceOnUse"
       gradientTransform="matrix(0.9247229,0,0,1.0872097,-6.00562e-2,5.997642)"
       x1="11.998966"
       y1="0.92195445"
       x2="11.998966"
       y2="17.478098" />
    <linearGradient
       inkscape:collect="always"
       xlink:href="#StandardGradient"
       id="linearGradient3900"
       gradientUnits="userSpaceOnUse"
       gradientTransform="matrix(0.9247229,0,0,1.0872097,-1.0600562,4.997642)"
       x1="11.998966"
       y1="0.92195445"
       x2="11.998966"
       y2="17.478098" />
    <linearGradient
       inkscape:collect="always"
       xlink:href="#StandardGradient"
       id="linearGradient3906"
       gradientUnits="userSpaceOnUse"
       gradientTransform="matrix(0.9247229,0,0,1.0872097,-6.00562e-2,5.997642)"
       x1="11.998966"
       y1="0.92195445"
       x2="11.998966"
       y2="17.478098" />
    <linearGradient
       inkscape:collect="always"
       xlink:href="#StandardGradient"
       id="linearGradient3340"
       gradientUnits="userSpaceOnUse"
       gradientTransform="matrix(0.9247229,0,0,1.0872097,-3.0600562,4.999538)"
       x1="11.998966"
       y1="-4.5990243"
       x2="11.998966"
       y2="9.1983051" />
    <linearGradient
       inkscape:collect="always"
       xlink:href="#StandardGradient"
       id="linearGradient2402"
       gradientUnits="userSpaceOnUse"
       gradientTransform="matrix(0.9247229,0,0,1.0872097,-3.0600562,4.999538)"
       x1="11.998966"
       y1="-4.5990243"
       x2="11.998966"
       y2="9.1983051" />
    <linearGradient
       inkscape:collect="always"
       xlink:href="#StandardGradient"
       id="linearGradient2405"
       gradientUnits="userSpaceOnUse"
       gradientTransform="matrix(0.9247229,0,0,1.0872097,-3.0600562,4.999538)"
       x1="11.998966"
       y1="-4.5990243"
       x2="11.998966"
       y2="9.1983051" />
    <linearGradient
       inkscape:collect="always"
       xlink:href="#StandardGradient"
       id="linearGradient2412"
       gradientUnits="userSpaceOnUse"
       gradientTransform="matrix(0.9247229,0,0,1.0872097,-3.0600562,4.999538)"
       x1="11.998966"
       y1="-4.5990243"
       x2="11.998966"
       y2="9.1983051" />
    <linearGradient
       inkscape:collect="always"
       xlink:href="#StandardGradient"
       id="linearGradient2417"
       gradientUnits="userSpaceOnUse"
       gradientTransform="matrix(0.9247229,0,0,1.0872097,-3.0600562,4.999538)"
       x1="11.998966"
       y1="-4.5990243"
       x2="11.998966"
       y2="9.1983051" />
    <inkscape:perspective
       id="perspective3648"
       inkscape:persp3d-origin="0.5 : 0.33333333 : 1"
       inkscape:vp_z="1 : 0.5 : 1"
       inkscape:vp_y="0 : 1000 : 0"
       inkscape:vp_x="0 : 0.5 : 1"
       sodipodi:type="inkscape:persp3d" />
    <linearGradient
       inkscape:collect="always"
       xlink:href="#StandardGradient"
       id="linearGradient3636"
       gradientUnits="userSpaceOnUse"
       gradientTransform="matrix(0.9247229,0,0,1.0872097,-23.060056,4.999538)"
       x1="11.998966"
       y1="-4.5990243"
       x2="11.998966"
       y2="9.1983051" />
    <clipPath
       clipPathUnits="userSpaceOnUse"
       id="clipPath3643">
      <path
         style="fill:#ff00ff;fill-opacity:1;stroke:none;display:inline"
         d="m -20,0 0,16 16,0 0,-16 -6,0 0,0.96875 1.5,0 c 0.831,0 1.5,0.6690001 1.5,1.5 l 0,1.625 C -6.412983,4.2970063 -6,4.842125 -6,5.5 l 0,8 c 0,0.831 -0.669,1.5 -1.5,1.5 l -6,0 c -0.831,0 -1.5,-0.669 -1.5,-1.5 l 0,-0.5 -1,0 -0.46875,0 c -0.02057,0 -0.04214,8.12e-4 -0.0625,0 -0.802306,-0.032 -1.4375,-0.689569 -1.4375,-1.5 l 0,-9.03125 c 0,-0.831 0.669,-1.50000002 1.5,-1.5 L -15,0.96875 -15,0 -20,0 z m 6,1 0,1 3,0 0,-1 -3,0 z m 1.5,5 C -12.777,6 -13,6.223 -13,6.5 l 0,6 c 0,0.277 0.223,0.5 0.5,0.5 l 4,0 c 0.277,0 0.5,-0.223 0.5,-0.5 l 0,-6 C -8,6.223 -8.223,6 -8.5,6 l -4,0 z"
         id="path3645" />
    </clipPath>
    <linearGradient
       inkscape:collect="always"
       xlink:href="#StandardGradient"
       id="linearGradient5084"
       gradientUnits="userSpaceOnUse"
       gradientTransform="matrix(0.9247229,0,0,1.0872097,-3.0600562,4.999538)"
       x1="11.998966"
       y1="-4.5990243"
       x2="11.998966"
       y2="9.1983051" />
    <linearGradient
       inkscape:collect="always"
       xlink:href="#StandardGradient"
       id="linearGradient5088"
       gradientUnits="userSpaceOnUse"
       gradientTransform="matrix(0.9247229,0,0,1.0872097,-3.0600562,4.999538)"
       x1="11.998966"
       y1="-4.5990243"
       x2="11.998966"
       y2="9.1983051" />
  </defs>
  <metadata
     id="metadata7">
    <rdf:RDF>
      <cc:Work
         rdf:about="">
        <dc:format>image/svg+xml</dc:format>
        <dc:type
           rdf:resource="http://purl.org/dc/dcmitype/StillImage" />
      </cc:Work>
    </rdf:RDF>
  </metadata>
  <g
     style="display:inline"
     inkscape:label="Calque 1"
     id="layer1"
     inkscape:groupmode="layer">
    <path
       id="BevelShadow"
       style="opacity:1;fill:#bebebe;fill-opacity:1;stroke:none;stroke-width:1.00000024;stroke-linecap:round;stroke-linejoin:miter;stroke-miterlimit:4;stroke-dasharray:none;stroke-opacity:1;display:inline"
       d="m 5,0 0,0.96875 -1.46875,0 c -0.8309999,-2e-8 -1.5,0.669 -1.5,1.5 l 0,1 c 0,-0.831 0.6690001,-1.5 1.5,-1.5 L 5,1.96875 5,1 l 1,0 3,0 1,0 0,0.96875 1.5,0 c 0.831,0 1.5,0.6690001 1.5,1.5 l 0,-1 c 0,-0.8309999 -0.669,-1.5 -1.5,-1.5 l -1.5,0 L 10,0 5,0 Z M 6,2 6,3 9,3 9,2 6,2 Z m 7,2.09375 0,1 C 13.587017,5.2970063 14,5.842125 14,6.5 l 0,-1 C 14,4.842125 13.587017,4.2970063 13,4.09375 Z M 7,12.5 l 0,1 C 7,13.777 7.223,14 7.5,14 l 4,0 c 0.277,0 0.5,-0.223 0.5,-0.5 l 0,-1 c 0,0.277 -0.223,0.5 -0.5,0.5 l -4,0 C 7.223,13 7,12.777 7,12.5 Z M 5,0 l 0,0.96875 -1.46875,0 c -0.8309999,-2e-8 -1.5,0.669 -1.5,1.5 l 0,9.03125 c 10e-8,0.810431 0.6351935,1.468004 1.4375,1.5 0.020363,8.12e-4 0.041931,0 0.0625,0 L 4,13 5,13 5,13.5 C 5,14.331 5.669,15 6.5,15 l 6,0 c 0.831,0 1.5,-0.669 1.5,-1.5 l 0,-8 C 14,4.842125 13.587017,4.2970063 13,4.09375 l 0,-1.625 c 0,-0.8309999 -0.669,-1.5 -1.5,-1.5 l -1.5,0 L 10,0 5,0 Z M 6,1 9,1 9,2 6,2 6,1 Z m 1.5,5 4,0 C 11.777,6 12,6.223 12,6.5 l 0,6 c 0,0.277 -0.223,0.5 -0.5,0.5 l -4,0 C 7.223,13 7,12.777 7,12.5 l 0,-6 C 7,6.223 7.223,6 7.5,6 Z" />
  </g>
</svg>
